!!!COM: Charles Gounod
!!!CNT: Francais
!!!TXO: Francais
!!!OTL: "Re^verie"
!!!LYR: Barbier
!!!OPR: 
!!!OPS: Op. 
!!!ONM: No.
!!!ENC: Emily Thomas
!!!YOR: CD Sheet Music French Art Songs, The Ultimate Collection
!!!YOR: CD Sheet Music, LLC 2003
!!!ODT: 1872/
!!NB: Vocal melody and text encoded.
**kern	**silbe
=1	=1
*clefG2	*
*k[b-e-]	*
*M6/8	*
*MM[Moderato con moto.]	*
2.r	.
=2	=2
2.r	.
=3	=3
{4d	{Sur
8e-	le
4f	flot
8g	des
=4	=4
4a	re^-
8b-	-ves,
4cc	Loin
8dd	des
=5	=5
4dd	gre\-
8ee-	|
4ff	|
8gg	|
=6	=6
[4.cc	-ves,
8cc]}	|}
8r	.
8r	.
=7	=7
{4cc#	{Dieu
8dd	|
4ee-	des
8ff	a-
=8	=8
2.b-}	-mours}
=9	=9
{4dd	{Ber-
8cc	|
4g	-ce
8cc	|
=10	=10
8b-	nos
8a	|
8g	beaux
8f	jours,
8en	|
8e-}	|}
=11	=11
{4d	{Sur
8e-	le
4f	flot
8g	des
=12	=12
4a	re^-
8b-	-ves,
4cc	Loin
8dd	des
=13	=13
4dd	gre\-
8ee-	|
4aa	|
8gg	|
=14	=14
[4.cc	-ves,
8cc]}	|}
8r	.
8r	.
=15	=15
{4cc#	{Ber-
8dd	-ce
4ee-	nos
8dd	beaux
=16	=16
8dd	jours
8cc	|
8b-	|
8g	Dieu
8a	|
8b-	|
=17	=17
8cc	des
8dd	|
8ffq	|
8ee-	|
4dd	a-
8cc	|
=18	=18
4.b-}	-mours!}
4r	.
8r	.
=19	=19
{4a	{Bri-
8r	.
4a	-se
8r	.
=20	=20
4a	pu-
8r	.
8a	-re,
8b-	|
8cc}	|}
=21	=21
{4dd	{Ton
8r	.
4dd	mur-
8r	.
=22	=22
4dd	-mu-
8r	.
8dd	-re,
8een	|
8ff}	|}
=23	=23
{4een	{Dans
8r	.
4dd	la
8r	.
=24	=24
4cc	nuit
8r	.
4b-	s'en-
8r	.
=25	=25
8b-	-vole
8a	|
8f	|
8f	et
8en	|
8d	|
=26	=26
8c}	fuit.}
{8d	{Ah!
8en	|
8f	|
8g	|
8g#}	|}
=27	=27
{4a	{L'hi-
8r	.
4a	-ron-
8r	.
=28	=28
4a	-del
8r	.
8a	le
8b-	|
8cc}	|}
=29	=29
{4dd	{D'un
8r	.
4dd	coup
8r	.
=30	=30
4dd	d'ai-
8r	.
8dd	-le
8een	|
8ff}	|}
=31	=31
{4een	{Ra-
8r	.
4.dd	-se
=32	=32
8cc	l'eau
8g	|
8a	|
8b-	sans
8d	|
8en	|
=33	=33
8f	bruit,
8en	|
8g	|
8f	sans
8en	|
8g	|
=34	=34
8f}	bruit.}
{8en	{Ah!
8g	|
8f	|
8e	|
8e-}	|}
=35	=35
{4d	{Sur
8e-	le
4f	flot
8g	des
=36	=36
4a	re^-
8b-	-ves,
4cc	Loin
8dd	des
=37	=37
4dd	gre\-
8ee-	|
4ff	|
8gg	|
=38	=38
[4.cc	-ves,
8cc]}	|}
8r	.
8r	.
=39	=39
{4cc#	{Dieu
8dd	|
4ee-	des
8ff	a-
=40	=40
2.b-}	-mours,}
=41	=41
{4dd	{Ber-
8cc	|
4g	-ce
8cc	|
=42	=42
8b-	nos
8a	|
8g	beaux
8f	jours.
8en	|
8e-}	|}
=43	=43
{4d	{Sur
8e-	le
4f	flot
8g	des
=44	=44
4a	re^-
8b-	-ves,
4cc	Loin
8dd	des
=45	=45
4dd	gre\-
8ee-	|
4aa	|
8gg	|
=46	=46
[4.cc	-ves,
8cc]}	|}
8r	.
8r	.
=47	=47
{4cc#	{Ber-
8dd	-ce
4ee-	nos
8dd	beaux
=48	=48
8dd	jours
8cc	|
8b-	|
8g	Dieu
8a	|
8b-	|
=49	=49
8cc	des
8dd	|
8ffq	|
8ee-	|
4dd	a-
8cc	|
=50	=50
4.b-}	-mours!}
4r	.
8r	.
=51	=51
{4a	{Le
8r	.
4a	ciel
8r	.
=52	=52
4a	me^-
8r	.
8a	me
8b-	|
8cc}	|}
=53	=53
{4dd	{Quand
8r	.
4dd	on
8r	.
=54	=54
4dd	ai-
8r	.
8dd	-me,
8een	|
8ff}	|}
=55	=55
{4een	{Sans
8r	.
4dd	ef-
8r	.
=56	=56
4cc	-fort
8r	.
4b-	Vous
8r	.
=57	=57
8b-	guide
8a	|
8g	|
8f	au
8en	|
8d	|
=58	=58
8c}	port.}
{8d	{Ah!
8en	|
8f	|
8g	|
8g#}	|}
=59	=59
{4a	{Et
8r	.
4a	la
8r	.
=60	=60
4a	vi-
8r	.
8a	-e
8b-	|
8cc}	|}
=61	=61
{4dd	{Vous
8r	.
4dd	con-
8r	.
=62	=62
4dd	-vi-
8r	.
8dd	-e
8een	|
8ff}	|}
=63	=63
{4een	{De
8r	.
4dd	bra-
8r	.
=64	=64
8cc	-ver
8g	|
8a	|
8b-	le
8d	|
8en	|
=65	=65
8f	sort,
8en	|
8g	|
8f	de
8en	|
8g	bra-
=66	=66
8f	-ver
8en	|
8g	le
8f	sort
8e	|
8e-}	|}
=67	=67
{4d	{Sur
8e-	le
4f	flot
8g	des
=68	=68
4a	re^-
8b-	-ves,
4cc	Loin
8dd	des
=69	=69
4dd	gre\-
8ee-	|
4ff	|
8gg	|
=70	=70
[4.cc	-ves,
8cc]}	|}
8r	.
8r	.
=71	=71
{4cc#	{Dieu
8dd	|
4ee-	des
8ff	a-
=72	=72
2.b-}	-mours}
=73	=73
{4dd	{Ber-
8cc	|
4g	-ce
8cc	|
=74	=74
8b-	nos
8a	|
8g	beaux
8f	jours,
8en	|
8e-}	|}
=75	=75
{4d	{Sur
8e-	le
4f	flot
8g	des
=76	=76
4a	re^-
8b-	-ves,
4cc	Loin
8dd	des
=77	=77
4dd	gre\-
8ee-	|
4aa	|
8gg	|
=78	=78
[4.cc	-ves,
8cc]}	|}
8r	.
8r	.
=79	=79
{4cc#	{Ber-
8dd	-ce
4ee-	nos
8dd	beaux
=80	=80
8dd	jours
8cc	|
8b-	|
8g	Dieu
8a	|
8b-	|
=81	=81
8cc	des
8dd	|
8ffq	|
8ee-	|
4dd	a
8cc	|
=82	=82
8b-}	-mours!}
8r	.
{8b-	{Ah!
8a	|
8r	.
8a-	ah!
=83	=83
8g	|
8r	.
8g-	ah!
4.f	|
=84	=84
8f]}	|}
8r	.
{8b-	{ah!
8a	|
8r	.
8a-	ah!
=85	=85
8g	|
8r	.
8g-	ah!
[4.f	|
=86	=86
8f]	|
8d	|
8f	|
8g	|
8d	|
8g	|
=87	=87
8f	|
8d	|
8f	|
8g	|
8d	|
8g	|
=88	=88
8f	|
8d	|
8g	|
8f	|
8d	|
8cc	|
=89	=89
8b-	|
8f	|
8ee-	|
8dd	|
8b-	|
8gg	|
=90	=90
2.ffT	|
=91	=91
2.ffT	|
16eenq	|
16ffq	|
=92	=92
[2.b-	|
=93	=93
8b-]}	|}
8r	.
8r	.
4r	.
8r	.
==	==
*-	*-

